img/features-icon5.svg

<svg width="91" height="91" viewBox="0 0 91 91" fill="none" xmlns="http://www.w3.org/2000/svg">
<rect width="91" height="91" rx="45.5" fill="#FAC663"/>
<path d="M47.1588 46.617C50.4341 46.617 53.1139 50.0596 53.1139 50.9203C53.1139 51.7809 50.4341 54.6498 47.1588 54.6498C43.8835 54.6498 41.5015 50.9203 41.5015 50.9203C41.5015 50.9203 43.8835 46.617 47.1588 46.617Z" fill="#FFFDFB"/>
<path d="M37.9285 47.4777L41.5015 50.9203M41.5015 50.9203L37.9285 54.3629M41.5015 50.9203C41.5015 50.9203 43.8835 54.6498 47.1588 54.6498C50.4341 54.6498 53.1139 51.7809 53.1139 50.9203C53.1139 50.0596 50.4341 46.617 47.1588 46.617C43.8835 46.617 41.5015 50.9203 41.5015 50.9203Z" stroke="#FFFDFB" stroke-width="2" stroke-linecap="round" stroke-linejoin="round"/>
<path d="M68.1632 38.9608L68.1632 38.9608C68.0925 38.4839 67.6601 38.1044 67.1209 38.1044H63.0462H62.6487L62.559 37.7172C61.9084 34.9062 59.3392 34.0633 59.0435 33.9687L58.8469 33.9058L58.7519 33.7226C57.3626 31.0414 54.4927 30.9067 54.1708 30.896L53.968 30.8892L53.8273 30.743C52.129 28.979 49.8295 28.9614 48.5968 29.2663L48.4022 29.3145L48.2282 29.2148C47.1355 28.5888 44.922 27.9826 42.7716 29.2148L42.5976 29.3145L42.403 29.2664C41.1699 28.9614 38.87 28.9794 37.1721 30.743L37.0314 30.8891L36.8287 30.896C36.51 30.9067 33.636 31.0415 32.2475 33.7228L32.1525 33.9063L31.9557 33.9692C31.6555 34.0651 29.0891 34.9121 28.4403 37.7171L28.3508 38.1044H27.9532H23.8789C23.3397 38.1044 22.9073 38.4839 22.8365 38.9608L22.8365 38.9608L19.5103 61.3679L19.5102 61.3681C19.4688 61.6463 19.5542 61.9315 19.7511 62.1502M68.1632 38.9608L19.7511 62.1502M68.1632 38.9608L71.4899 61.3677C71.5311 61.646 71.4456 61.9313 71.2489 62.1499M68.1632 38.9608L71.2489 62.1499M19.7511 62.1502C19.9487 62.3695 20.2406 62.5 20.5527 62.5H70.4471C70.759 62.5 71.0507 62.3696 71.2489 62.1499M19.7511 62.1502L71.2489 62.1499M34.3379 34.1397L34.3378 34.1399C34.1209 34.9191 33.4486 35.4823 32.647 35.5937C32.6403 35.5973 32.6318 35.602 32.6216 35.6081C32.5692 35.6391 32.4953 35.6894 32.402 35.7602C32.2166 35.9008 31.9823 36.1014 31.7355 36.3367C31.4826 36.5779 31.2297 36.843 31.0094 37.1048H60.0638C59.8586 36.7983 59.6393 36.4997 59.4358 36.2409C59.2527 36.0081 59.088 35.8146 58.9641 35.6819C58.9242 35.6391 58.8911 35.6055 58.8651 35.5804C58.101 35.4429 57.4668 34.8921 57.2578 34.1397L34.3379 34.1397ZM34.3379 34.1397C34.4343 33.7927 34.846 33.3951 35.4877 33.0942C36.1136 32.8007 36.7868 32.6817 37.2017 32.7494C38.0218 32.8833 38.8537 32.5229 39.2939 31.8217C39.5066 31.4833 39.9311 31.1923 40.4494 31.0448C40.9665 30.8977 41.4934 30.9175 41.8759 31.0979C42.6272 31.4523 43.5283 31.3299 44.151 30.7816C44.4584 30.511 44.9562 30.3473 45.4991 30.347C46.0421 30.3467 46.5404 30.5098 46.8492 30.7817C47.472 31.33 48.3726 31.4522 49.1242 31.0979L49.1243 31.0979M34.3379 34.1397L49.1243 31.0979M49.1243 31.0979C49.492 30.9245 50.1666 30.8921 50.8671 31.0493C51.2054 31.1252 51.5217 31.2397 51.7789 31.3809C52.0406 31.5245 52.2121 31.6796 52.3014 31.8218M49.1243 31.0979L54.3943 32.7493M54.3943 32.7493L54.3939 32.7494C53.5742 32.8828 52.7423 32.5237 52.3014 31.8218M54.3943 32.7493C54.8175 32.6801 55.491 32.8029 56.1152 33.099M54.3943 32.7493L56.1152 33.099M52.3014 31.8218L52.7248 31.5558L52.3015 31.8218C52.3014 31.8218 52.3014 31.8218 52.3014 31.8218ZM56.1152 33.099C56.7558 33.4028 57.1637 33.8013 57.2578 34.1396L56.1152 33.099ZM32.4816 34.6067L32.4815 34.6067C32.326 34.6244 32.1848 34.7045 32.1116 34.7479C32.0148 34.8053 31.9078 34.8799 31.7976 34.9635C31.5758 35.1317 31.3127 35.3581 31.0454 35.613C30.5197 36.1143 29.9275 36.7737 29.6049 37.3655L29.202 38.1048H30.044H60.9554H61.7979L61.3943 37.3653C61.0646 36.7611 60.6099 36.1162 60.2218 35.6228C60.0272 35.3753 59.8438 35.1589 59.6952 34.9996C59.6218 34.921 59.5502 34.849 59.4857 34.7927C59.4542 34.7651 59.4155 34.7334 59.373 34.7052L59.3712 34.704C59.3458 34.6871 59.2479 34.622 59.1139 34.6067L59.1137 34.6067C58.6754 34.557 58.3284 34.2575 58.2213 33.872L58.2213 33.8719C58.0076 33.1031 57.2604 32.5354 56.5438 32.1955C55.811 31.8478 54.9256 31.6492 54.2332 31.7624C53.7953 31.8336 53.3673 31.6386 53.1482 31.2899L53.1482 31.2898C52.9373 30.9542 52.6099 30.6963 52.2601 30.5043C51.9059 30.3098 51.4981 30.166 51.086 30.0735C50.2855 29.8939 49.3535 29.8843 48.6978 30.1934C48.3019 30.38 47.8294 30.3123 47.51 30.0311L47.51 30.031C46.97 29.5557 46.2116 29.3466 45.4986 29.347C44.7857 29.3474 44.0283 29.5573 43.4902 30.0311L43.4902 30.0311C43.1707 30.3124 42.6978 30.3799 42.3024 30.1934L42.3024 30.1934C41.6469 29.8843 40.8604 29.8882 40.1757 30.083C39.4922 30.2774 38.8264 30.6862 38.4471 31.2898L38.447 31.29C38.2281 31.6385 37.8001 31.8339 37.3628 31.7624L37.3625 31.7624C36.6813 31.6514 35.7979 31.8443 35.0631 32.1888C34.3441 32.526 33.5911 33.0926 33.3744 33.8717C33.267 34.2576 32.9201 34.557 32.4816 34.6067ZM32.6677 35.5833C32.6677 35.5833 32.6672 35.5835 32.6662 35.5839L32.6677 35.5833ZM20.0619 61.6576L19.9744 62.2328H20.5562H70.4435H71.0254L70.9378 61.6576L67.4593 38.7964L67.3946 38.3716H66.965H24.0348H23.6051L23.5405 38.7964L20.0619 61.6576Z" fill="#FFFDFB" stroke="#FFFDFB" stroke-width="0.999999"/>
</svg>

<svg width="91" height="91" fill="none" xmlns="http://www.w3.org/2000/svg"><rect width="91" height="91" rx="45.5" fill="#FAC663"/><path d="M47.159 46.617c3.275 0 5.955 3.443 5.955 4.303 0 .86-2.68 3.73-5.955 3.73-3.276 0-5.657-3.73-5.657-3.73s2.381-4.303 5.657-4.303z" fill="#FFFDFB"/><path d="M37.928 47.478l3.574 3.442m0 0l-3.574 3.443m3.574-3.443s2.381 3.73 5.657 3.73c3.275 0 5.955-2.87 5.955-3.73 0-.86-2.68-4.303-5.955-4.303-3.276 0-5.657 4.303-5.657 4.303z" stroke="#FFFDFB" stroke-width="2" stroke-linecap="round" stroke-linejoin="round"/><path d="M68.163 38.96h0c-.07-.476-.503-.856-1.042-.856h-4.472l-.09-.387c-.65-2.81-3.22-3.654-3.515-3.748l-.197-.063-.095-.183c-1.39-2.682-4.26-2.816-4.581-2.827l-.203-.007-.14-.146c-1.699-1.764-3.998-1.782-5.231-1.477l-.195.049-.174-.1c-1.093-.626-3.306-1.232-5.456 0l-.174.1-.195-.049c-1.233-.305-3.533-.287-5.23 1.477l-.142.146-.202.007c-.319.01-3.193.145-4.581 2.827l-.095.183-.197.063c-.3.096-2.867.943-3.516 3.748l-.09.387h-4.47c-.54 0-.972.38-1.043.857h0L19.51 61.368h0a.956.956 0 00.241.782m48.412-23.19L19.751 62.15m48.412-23.19l3.327 22.408a.958.958 0 01-.241.782m-3.086-23.19l3.086 23.19m-51.498 0c.198.22.49.35.802.35h49.894c.312 0 .604-.13.802-.35m-51.498 0H71.25M34.338 34.14h0a2.034 2.034 0 01-1.691 1.454 2.461 2.461 0 00-.245.166 9.848 9.848 0 00-1.393 1.345h29.055a14.25 14.25 0 00-.628-.864 9.11 9.11 0 00-.472-.56 2.744 2.744 0 00-.099-.1 2.03 2.03 0 01-1.607-1.441h-22.92zm0 0c.096-.347.508-.745 1.15-1.046.626-.293 1.299-.412 1.714-.345a2.075 2.075 0 002.092-.927c.213-.339.637-.63 1.155-.777.518-.147 1.044-.128 1.427.053a2.1 2.1 0 002.275-.316c.307-.271.805-.435 1.348-.435s1.041.163 1.35.435a2.1 2.1 0 002.275.316h0M34.338 34.14l14.786-3.042m0 0c.368-.174 1.043-.206 1.743-.049.338.076.655.19.912.332.262.143.433.299.522.44m-3.177-.723l5.27 1.651m0 0h0a2.076 2.076 0 01-2.093-.927m2.093.927c.424-.069 1.097.054 1.721.35m-1.72-.35l1.72.35m-3.814-1.277l.424-.266-.424.266s0 0 0 0zm3.814 1.277c.64.304 1.049.702 1.143 1.04l-1.143-1.04zm-23.633 1.508h0a.973.973 0 00-.37.14 3.445 3.445 0 00-.314.217 9.138 9.138 0 00-.753.649c-.525.501-1.118 1.16-1.44 1.752l-.403.74h32.596l-.404-.74A13.344 13.344 0 0059.695 35a2.999 2.999 0 00-.21-.207 1.08 1.08 0 00-.112-.088l-.002-.001a.593.593 0 00-.257-.097h0a1.036 1.036 0 01-.893-.735h0c-.213-.769-.96-1.337-1.677-1.676-.733-.348-1.618-.547-2.31-.434a1.077 1.077 0 01-1.086-.472h0c-.21-.336-.538-.594-.888-.786a4.527 4.527 0 00-1.174-.43c-.8-.18-1.733-.19-2.388.12a1.1 1.1 0 01-1.188-.163h0c-.54-.475-1.298-.684-2.011-.684-.713 0-1.47.21-2.009.684h0a1.1 1.1 0 01-1.188.162h0c-.655-.309-1.442-.305-2.126-.11-.684.194-1.35.603-1.729 1.207h0a1.075 1.075 0 01-1.084.472h0c-.682-.11-1.565.082-2.3.427-.719.337-1.472.904-1.689 1.683a1.036 1.036 0 01-.892.735zm.186.976h-.002.002zM20.062 61.658l-.088.575h51.051l-.087-.575-3.479-22.862-.064-.424h-43.79l-.064.424-3.48 22.862z" fill="#FFFDFB" stroke="#FFFDFB"/></svg>
